packages/crayons-core/src/components/icon/icon-assets/icons/calendar.svg

<?xml version="1.0" encoding="UTF-8"?>
<svg width="14px" height="14px" viewBox="0 0 14 14" version="1.1" xmlns="http://www.w3.org/2000/svg" xmlns:xlink="http://www.w3.org/1999/xlink">
    <!-- Generator: Sketch 52.6 (67491) - http://www.bohemiancoding.com/sketch -->
    <title>icon/calendar</title>
    <desc>Created with Sketch.</desc>
    <g id="Icons-✅" stroke="none" stroke-width="1" fill="none" fill-rule="evenodd">
        <g id="Icons" transform="translate(-245.000000, -2653.000000)" fill="currentColor">
            <g id="icon/calendar" transform="translate(245.000000, 2653.000000)">
                <g id="calendar">
                    <path d="M11.3,0.85 C12.7911688,0.85 14,2.05883118 14,3.55 L14,11.3 C14,12.7911688 12.7911688,14 11.3,14 L2.7,14 C1.20883118,14 2.22044605e-16,12.7911688 0,11.3 L0,3.55 C2.22044605e-16,2.05883118 1.20883118,0.85 2.7,0.85 L3,0.85 L3,0.7 C3.06816545,0.376045246 3.35395135,0.144135353 3.685,0.144135353 C4.01604865,0.144135353 4.30183455,0.376045246 4.37,0.7 L4.37,0.85 L9.6,0.85 L9.6,0.7 C9.59999999,0.44991408 9.73341923,0.218825156 9.94999999,0.0937821928 C10.1665807,-0.0312607703 10.4334193,-0.0312607703 10.65,0.0937821928 C10.8665808,0.218825156 11,0.44991408 11,0.7 L11,0.85 L11.3,0.85 Z M2.7,2.25 C1.98202983,2.25 1.4,2.83202983 1.4,3.55 L1.4,4 L12.63,4 L12.63,3.55 C12.63,2.83202983 12.0479702,2.25 11.33,2.25 L11.06,2.25 L11.06,2.46 C11.06,2.84659932 10.7465993,3.16 10.36,3.16 C9.97340068,3.16 9.66,2.84659932 9.66,2.46 L9.66,2.25 L4.4,2.25 L4.4,2.46 C4.4,2.84659932 4.08659932,3.16 3.7,3.16 C3.31340068,3.16 3,2.84659932 3,2.46 L3,2.25 L2.7,2.25 Z M11.3,12.6 C12.0179702,12.6 12.6,12.0179702 12.6,11.3 L12.6,5.36 L1.4,5.36 L1.4,11.3 C1.4,12.0179702 1.98202983,12.6 2.7,12.6 L11.3,12.6 Z M3.73,9.23 C4.24390919,9.2551129 4.6548871,9.66609081 4.68,10.18 C4.70017562,10.592873 4.46423901,10.9756068 4.08631438,11.1430706 C3.70838974,11.3105343 3.26637868,11.2282086 2.97408505,10.935915 C2.68179142,10.6436213 2.59946571,10.2016103 2.76692944,9.82368562 C2.93439317,9.44576099 3.31712705,9.20982438 3.73,9.23 Z M7,9.23 C7.53333349,9.22933294 7.97333372,9.64733315 8,10.18 C8.0204449,10.588393 7.79019064,10.9680891 7.41860035,11.1387452 C7.04701006,11.3094013 6.60895678,11.2366314 6.31250128,10.9549987 C6.01604578,10.6733659 5.92092193,10.2396176 6.0723104,9.85976977 C6.22369887,9.47992193 6.59109587,9.23051143 7,9.23 Z M10.27,9.23 C10.8033335,9.22933294 11.2433337,9.64733315 11.27,10.18 C11.2904449,10.588393 11.0601906,10.9680891 10.6886004,11.1387452 C10.3170101,11.3094013 9.87895678,11.2366314 9.58250128,10.9549987 C9.28604578,10.6733659 9.19092193,10.2396176 9.3423104,9.85976977 C9.49369887,9.47992193 9.86109587,9.23051143 10.27,9.23 Z M3.73,6.52 C4.26266685,6.54666628 4.68066706,6.98666651 4.68,7.52 C4.67948857,7.92890413 4.43007807,8.29630113 4.05023023,8.4476896 C3.67038239,8.59907807 3.23663407,8.50395422 2.95500135,8.20749872 C2.67336863,7.91104322 2.60059866,7.47298994 2.77125478,7.10139965 C2.94191089,6.72980936 3.32160698,6.4995551 3.73,6.52 Z M7,6.52 C7.55228475,6.52 8,6.96771525 8,7.52 C8,8.07228475 7.55228475,8.52 7,8.52 C6.44771525,8.52 6,8.07228475 6,7.52 C6,6.96771525 6.44771525,6.52 7,6.52 Z M10.27,6.52 C10.8222847,6.52 11.27,6.96771525 11.27,7.52 C11.27,8.07228475 10.8222847,8.52 10.27,8.52 C9.71771525,8.52 9.27,8.07228475 9.27,7.52 C9.27,6.96771525 9.71771525,6.52 10.27,6.52 Z" id="Combined-Shape"></path>
                </g>
            </g>
        </g>
    </g>
</svg>

<svg viewBox="0 0 14 14"><path d="M11.3.85a2.7 2.7 0 0 1 2.7 2.7v7.75a2.7 2.7 0 0 1-2.7 2.7H2.7A2.7 2.7 0 0 1 0 11.3V3.55A2.7 2.7 0 0 1 2.7.85H3V.7a.7.7 0 0 1 1.37 0v.15H9.6V.7a.7.7 0 1 1 1.4 0v.15h.3zm-8.6 1.4a1.3 1.3 0 0 0-1.3 1.3V4h11.23v-.45a1.3 1.3 0 0 0-1.3-1.3h-.27v.21a.7.7 0 0 1-1.4 0v-.21H4.4v.21a.7.7 0 0 1-1.4 0v-.21h-.3zm8.6 10.35a1.3 1.3 0 0 0 1.3-1.3V5.36H1.4v5.94a1.3 1.3 0 0 0 1.3 1.3h8.6zM3.73 9.23a1 1 0 1 1-.098 1.998A1 1 0 0 1 3.73 9.23zm3.27 0a1 1 0 1 1 .003 2 1 1 0 0 1-.003-2zm3.27 0a1 1 0 1 1 .003 2 1 1 0 0 1-.003-2zM3.73 6.52a1 1 0 1 1-.1 1.997 1 1 0 0 1 .1-1.997zm3.27 0a1 1 0 1 1 0 2 1 1 0 0 1 0-2zm3.27 0a1 1 0 1 1 0 2 1 1 0 0 1 0-2z" fill="currentColor" fill-rule="evenodd"/></svg>
